X:41
T:Smash the Windows
M:6/8
L:1/8
K:D
~D3 F2 A|d2 f "^"ecA|~G3 FAF|"^"E2 F GFE|
~D3 F2 A|d2 f "^"ecA|"sl"Bgf edc|1d3 dAF|2d3 dfg||
"sl"a2 f d2 e|~f3 agf|"sl"g2 e c2 d|~e3 gfe|
"^"a2 f d2 e|~f3 agf|"sl"gfe  cde|dfe dzg||
"sl"a2 f d2 e|~f3 agf|"sl"g2 e c2 d|~e3 gfe|
fed gfe|agf bag|~f3 efe|d3 z2||
